img/brand/Adidas_Logo.svg

<svg width="90" height="60" viewBox="0 0 90 60" fill="none" xmlns="http://www.w3.org/2000/svg">
<path d="M82.8422 59.816C78.6613 59.816 76.1816 57.7073 75.9918 54.6699H79.9895C79.9895 55.6823 80.5587 57.0301 83.032 57.114C84.7462 57.114 85.6949 56.1015 85.6949 55.3406C85.5052 54.1604 83.9807 54.0766 82.4627 53.8186C80.7485 53.5736 79.4203 53.2318 78.465 52.8126C77.1368 52.1355 76.3713 50.6974 76.3713 49.1819C76.3713 46.4799 78.6613 44.3711 82.6525 44.3711C86.4604 44.3711 88.9336 46.3122 89.1168 49.2658H85.3154C85.3154 48.5113 85.1257 47.2408 82.8422 47.2408C81.3177 47.2408 80.369 47.4923 80.1793 48.5886C80.1793 50.1106 83.4114 50.0267 85.8846 50.6136C88.1681 51.2069 89.6926 52.6385 89.6926 54.6699C89.6926 58.3844 86.6502 59.816 82.8422 59.816Z" fill="#2A2929"/>
<path d="M9.99475 34.8947L23.1198 27.3819L30.1599 39.2864H12.468" fill="#2A2929"/>
<rect x="35.7188" y="45.5555" width="3.65624" height="13.8889" fill="#2A2929"/>
<path d="M3.90305 52.0777C3.90305 54.438 5.99678 56.3791 8.2737 56.3791C10.7535 56.3791 12.6509 54.438 12.6509 52.0777C12.6509 49.8013 10.7535 47.7764 8.2737 47.7764C5.99678 47.7764 3.90305 49.8013 3.90305 52.0777ZM8.08395 59.8421C3.90305 59.8421 0.291382 56.3791 0.291382 52.0777C0.291382 47.7764 3.90305 44.3972 8.08395 44.3972C9.79819 44.3972 11.3227 44.8228 12.6509 45.745V44.5649H16.4588V59.5003H12.6509V58.5717C11.5124 59.4165 9.79819 59.8421 8.08395 59.8421Z" fill="#2A2929"/>
<path d="M58.8842 39.283L40.6232 7.89041L53.7481 0.293766L76.576 39.283" fill="#2A2929"/>
<path d="M21.405 52.0777C21.405 54.438 23.309 56.3791 25.7822 56.3791C28.0591 56.3791 30.1594 54.438 30.1594 52.0777C30.1594 49.8013 28.0591 47.7764 25.7822 47.7764C23.309 47.7764 21.405 49.8013 21.405 52.0777ZM25.5925 59.8421C21.2153 59.8421 17.7933 56.3791 17.7933 52.0777C17.7933 47.7764 21.2153 44.3972 25.5925 44.3972C27.3001 44.3972 28.8246 44.8228 30.1594 45.745V39.4187H33.9608V59.5003H30.1594V58.5717C28.8246 59.4165 27.3001 59.8421 25.5925 59.8421Z" fill="#2A2929"/>
<path d="M25.4049 21.4768L38.7197 14.0542L53.3692 39.282H39.4786V42.9965H35.6772V39.282" fill="#2A2929"/>
<path d="M87.226 43.1136C86.2707 43.1136 85.322 42.2688 85.322 41.2563C85.322 40.2439 86.2707 39.3991 87.226 39.3991C88.3645 39.3991 89.13 40.2439 89.13 41.2563C89.13 42.2688 88.3645 43.1136 87.226 43.1136ZM87.226 39.657C86.2707 39.657 85.7015 40.4115 85.7015 41.2563C85.7015 42.1011 86.2707 42.8621 87.226 42.8621C88.1747 42.8621 88.7439 42.1011 88.7439 41.2563C88.7439 40.4115 88.1747 39.657 87.226 39.657Z" fill="#2A2929"/>
<path d="M87.6188 42.2755L87.2392 41.4307H86.8596V42.2755H86.5717V40.2505H87.429C87.6188 40.2505 87.9984 40.5085 87.9984 40.8438C87.9984 41.1792 87.8086 41.3468 87.6188 41.4307L87.9984 42.2755H87.6188ZM87.2392 40.5085H86.8596V41.1792H87.2392C87.6188 41.1792 87.6188 41.0953 87.6188 40.8438C87.6188 40.6697 87.6188 40.5085 87.2392 40.5085Z" fill="#2A2929"/>
<path d="M62.1014 52.0777C62.1014 54.438 64.0054 56.3791 66.4786 56.3791C68.7621 56.3791 70.8493 54.438 70.8493 52.0777C70.8493 49.8013 68.7621 47.7764 66.4786 47.7764C64.0054 47.7764 62.1014 49.8013 62.1014 52.0777ZM66.2823 59.8421C61.9117 59.8421 58.4897 56.3791 58.4897 52.0777C58.4897 47.7764 61.9117 44.3972 66.2823 44.3972C67.9966 44.3972 69.521 44.8228 70.8493 45.745V44.5649H74.4675V59.5003H70.8493V58.5717C69.521 59.4165 67.9966 59.8421 66.2823 59.8421Z" fill="#2A2929"/>
<path d="M44.6124 52.0777C44.6124 54.438 46.7061 56.3791 48.9896 56.3791C51.4628 56.3791 53.3668 54.438 53.3668 52.0777C53.3668 49.8013 51.4628 47.7764 48.9896 47.7764C46.7061 47.7764 44.6124 49.8013 44.6124 52.0777ZM53.3668 39.4187H57.1682V59.5003H53.3668V58.5717C52.2218 59.4165 50.6973 59.8421 48.9896 59.8421C44.6124 59.8421 41.0007 56.3791 41.0007 52.0777C41.0007 47.7764 44.6124 44.3972 48.9896 44.3972C50.6973 44.3972 52.2218 44.8228 53.3668 45.745V39.4187Z" fill="#2A2929"/>
</svg>

<svg width="90" height="60" viewBox="0 0 90 60" fill="none" xmlns="http://www.w3.org/2000/svg"><path d="M82.842 59.816c-4.18 0-6.66-2.109-6.85-5.146h3.998c0 1.012.569 2.36 3.042 2.444 1.714 0 2.663-1.012 2.663-1.773-.19-1.18-1.714-1.264-3.232-1.522-1.714-.245-3.043-.587-3.998-1.006-1.328-.678-2.094-2.116-2.094-3.631 0-2.702 2.29-4.81 6.282-4.81 3.807 0 6.28 1.94 6.464 4.894h-3.802c0-.755-.19-2.025-2.473-2.025-1.524 0-2.473.251-2.663 1.348 0 1.522 3.232 1.438 5.706 2.025 2.283.593 3.808 2.025 3.808 4.056 0 3.714-3.043 5.146-6.85 5.146zM9.995 34.895l13.125-7.513 7.04 11.904H12.468m23.251 6.27h3.656v13.889h-3.656zM3.903 52.078c0 2.36 2.094 4.301 4.37 4.301 2.48 0 4.378-1.941 4.378-4.301 0-2.277-1.897-4.302-4.377-4.302-2.277 0-4.37 2.025-4.37 4.302zm4.18 7.764c-4.18 0-7.792-3.463-7.792-7.764 0-4.302 3.612-7.68 7.793-7.68 1.714 0 3.239.425 4.567 1.347v-1.18h3.808V59.5H12.65v-.928c-1.139.844-2.853 1.27-4.567 1.27zm50.801-20.559L40.624 7.89 53.747.294l22.828 38.989m-55.17 12.795c0 2.36 1.904 4.301 4.377 4.301 2.277 0 4.377-1.941 4.377-4.301 0-2.277-2.1-4.302-4.377-4.302-2.473 0-4.377 2.025-4.377 4.302zm4.188 7.764c-4.378 0-7.8-3.463-7.8-7.764 0-4.302 3.422-7.68 7.8-7.68 1.707 0 3.232.425 4.566 1.347v-6.326h3.802V59.5h-3.802v-.928c-1.334.844-2.859 1.27-4.566 1.27zm-.188-38.365l13.315-7.423 14.65 25.228H39.478v3.715h-3.802v-3.715m51.55 3.832c-.955 0-1.904-.845-1.904-1.858 0-1.012.949-1.857 1.904-1.857 1.139 0 1.904.845 1.904 1.857 0 1.013-.765 1.858-1.904 1.858zm0-3.457c-.955 0-1.525.755-1.525 1.6 0 .844.57 1.605 1.525 1.605.949 0 1.518-.76 1.518-1.606 0-.845-.57-1.599-1.518-1.599z" fill="#2A2929"/><path d="M87.619 42.276l-.38-.845h-.38v.845h-.287V40.25h.857c.19 0 .57.258.57.594a.6.6 0 01-.38.587l.38.845h-.38zm-.38-1.768h-.38v.671h.38c.38 0 .38-.084.38-.335 0-.174 0-.336-.38-.336zm-25.138 11.57c0 2.36 1.904 4.301 4.378 4.301 2.283 0 4.37-1.941 4.37-4.301 0-2.277-2.087-4.302-4.37-4.302-2.474 0-4.378 2.025-4.378 4.302zm4.181 7.764c-4.37 0-7.792-3.463-7.792-7.764 0-4.302 3.422-7.68 7.792-7.68 1.715 0 3.239.425 4.567 1.347v-1.18h3.618V59.5H70.85v-.928c-1.328.844-2.852 1.27-4.567 1.27zm-21.67-7.764c0 2.36 2.094 4.301 4.378 4.301 2.473 0 4.377-1.941 4.377-4.301 0-2.277-1.904-4.302-4.377-4.302-2.284 0-4.378 2.025-4.378 4.302zm8.755-12.66h3.801V59.5h-3.801v-.928c-1.145.844-2.67 1.27-4.377 1.27-4.378 0-7.99-3.463-7.99-7.764 0-4.302 3.612-7.68 7.99-7.68 1.707 0 3.232.425 4.377 1.347v-6.326z" fill="#2A2929"/></svg>
